!!!!SEGMENT: pl-wumfc--r282--002-001_paderewski-ignacy-jan--exercises-2-exercise-1.krn
!!!cenid: 18xx:3176
!!!COM: Paderewski, Ignacy Jan
!!!COM-rismID: pe30029943
!!!CDT: 1860/11/18-1941/06/29
!!!CNT: Polish
!!!GTL: [Exercises 2]
!!!OTL: [Exercise] 1
!!!OMV: 001
!!!PDT:
!!!AGN:
!!!SMS-siglum: PL-Wumfc
!!!SMS-shelfmark: R282
!!!SMS-shelfwork: 002-001 G
!!!SMS-variant:
!!!SMS-altvar:
!!!NIFC-rismSourceID: 1001158933
!!!NIFC-rismChildID: 1001158933
!!!NIFC-islandoraID: pl-wumfc:419
!!!URL-pdf-islandora: https://repozytorium.nifc.pl/islandora/object/pl-wumfc%3A419/datastream/PDF/view
!!!URL-scan: https://polish.musicsources.pl/pl/lokalizacje/galeria/rekopisy/4702 @EN{Scan on Polish Music Sources Website} @PL{Skany w portalu Dziedzictwo Muzyki Polskiej w otwartym dostępie}
!!!IIIF:
!!!ONB-nifc: UWAGA: druga grupa ćwiczeń od skanu 0008
!!!AIN: 2 piano
!!!key: G
!!!filter-modern: sic -sq | shed -e "s/TX(.*):t=P:/tx$1:t=P:/LG" | autostem -r | modori -m
**kern	**kern
*part2	*part1
*group1	*group1
*staff2	*staff1
*I"[Pianoforte]	*I"[Pianoforte]
*I'	*I'
*mI"Pianoforte	*mI"Pianoforte
*mI'pf	*mI'pf
*Ipiano	*Ipiano
*ICklav	*ICklav
*IGsolo	*IGsolo
*clefF4	*clefG2
*k[f#]	*k[f#]
*G:	*G:
!LO:MO:mod=*M12/4	!
*M	*M12/4
!	!LO:TX:a:t=III Lection:mod=
!	!LO:TX:a:t=C.f.
4g\	2.g/
4f#\	.
[4e\	.
=1	=1
4e\]	2.g/
4c\	.
[4B\	.
4B\]	2.f#/
4A\	.
[4d\	.
4d\]	2.e/
4c\	.
[4C\	.
4C\]	2.d/
4BB\	.
[4D\	.
=2	=2
4D\]	2.g/
4C\	.
[4G\	.
4G\]	2.a/
4F#\	.
4D\	.
2.G;\	2.b;/
4G\	2.b/
4e\	.
[4d\	.
=3	=3
4d\]	2.b/
4B\	.
[4d\	.
4d\]	2.b/
4g\	.
[4e\	.
4e\]	2.a/
4d\	.
[4c\	.
4c\]	2.g/
4B\	.
[4E\	.
!!linebreak:original
=4	=4
4E\]	2.cc/
4C\	.
[4E\	.
4E\]	2.b/
4D\	.
4G\	.
2.A;\	2.a;/
4c\	2.g/
4B\	.
[4G\	.
=5	=5
4G\]	2.a/
4F#\	.
[4D\	.
4D\]	2.b/
4E\	.
[4G\	.
4G\]	2.a/
4F#\	.
[4d\	.
4d\]	2.g/
4c\	.
[4B\	.
=6	=6
4B\]	2.e/
4A\	.
[4e\	.
4e\]	2.f#/
4d\	.
4A\	.
2.G;\	2.g;/
4G\	2.dd\
4A\	.
[4B\	.
=7	=7
4B\]	2.b\
4e\	.
[4d\	.
4d\]	2.g/
4c\	.
[4g\	.
4g\]	2.a/
4f#\	.
[4d\	.
4d\]	2.dd\
4c\	.
[4e\	.
=8	=8
4e\]	2.b/
4d\	.
[4g\	.
4g\]	2.a/
4f#\	.
4d\	.
2.g;\	2.g;/
==	==
*-	*-
!!!system-decoration: {(g1)}
!!!ENC: Katarzyna Serwa
!!!END: 2021-11-16
!!!ENC: Filip Voros
!!!END: 2021-11-12
!!!ENC-modern: Andrzej Borzym
!!!END-modern: 2022-08-29
!!!YEC: Copyright 2022 Narodowy Instytut Fryderyka Chopina (https://polishscores.org)
!!!YEM: License CC-BY-4.0 (https://creativecommons.org/licenses/by/4.0)
